X: 69
T: MARCH: Snow on the Tracks
C: C: Rachel Darling; S: Leveret
C: Set Leaders: Sophie, Tania, Anton
Z: Anton Zille ed.; bdh at The Session
N: https://thesession.org/members/26966/sets/92013
R: March
M: 4/4
L: 1/8
Q: 1/2=82
K: Dmaj
z2d2 c2A2|:B2AG F2A2-|AA,DE F2A2|E3E- EEDE|F2d2 c2A2|
B2AG F2A2-|AA,DE F2A2|E2ED EFED|1 D2d2 c2A2:|2 D2DE F2A2||
|:E3E- EEDE|F2D2 F2A2|B2BA BdcA|F2DE F2A2|
E3E- EEDE|F2D2 F2A2|G3B AGFE|1 D2DE F2A2:|2 D2d2 c2A2||

